X: 4215
M: 6/8
L: 1/8
K: G
ccc c2D | ccc c2e | edB dcA | GBd g2 :|
|: f |\
gfg agf | bag agf | gfg bag | fdd def |\
gfg agf | gab bag | gab agf | g3- g2 :|


